!!!COM: Bach, Johann Sebastian
!!!OPR: Joh. Seb. Bachs vierstimmige Choralgesänge
!!!XEN: Four-part Chorales
!!!OTL: Chorale 126. Meinen Jesum lass' ich nicht, Jesus
!!!SCT: BWV 379
!!!SCA: Thematisch-systematisches Verzeichnis der musikalischen Werke Johann Sebastian Bach: Bach-Werke-Verzeichnis (Schmieder)
!!!YOR: Bach Gesellschaft Edition xxxix
!!!ENC: Steven Rasmussen
!!!CDT: 1685/3//-1750/7/28/
!!!OCY: Deutschland
!!!YEC: Copyright (c) 1994, 2000 Center for Computer Assisted Research in the Humanities
!!!YEM: Rights to all derivative editions reserved
!!!YEN: United States of America
**kern	**kern	**kern	**kern	**silbe
*I:[BASSO]	*I:[TENORE]	*I:[ALTO]	*I:[SOPRANO]	*I:[SOPRANO]
*>[A,A,B]	*>[A,A,B]	*>[A,A,B]	*>[A,A,B]	*
*>A	*>A	*>A	*>A	*
*clefF4	*clefGv2	*clefG2	*clefG2	*
*k[f#]	*k[f#]	*k[f#]	*k[f#]	*
*G:	*G:	*G:	*G:	*
*M4/4	*M4/4	*M4/4	*M4/4	*
=1-	=1-	=1-	=1-	=1-
8GL	4d	4g	4b	Mei-Je-
8F#J	.	.	.	.
8EL	8eL	8gL	4b	-nen-su
8D#J	8f#J	8aJ	.	.
8EL	4e	4g	4b	Je-hab'
8DnJ	.	.	.	.
8CL	4d	4g	4dd	-sumich
8BBJ	.	.	.	.
=2	=2	=2	=2	=2
4AA	8eL	8gL	4cc	lass'mich
.	8cJ	16f#L	.	.
.	.	16eJJ	.	.
4D	8AL	4f#	4cc	ichver-
.	8dJ	.	.	.
2GG;	2d;	2g;	2b;	nicht,-pflicht't,
=3	=3	=3	=3	=3
8GGL	4d	4g	4b	Je-ich
8AAJ	.	.	.	.
8BBL	4d	4g	4b	-suswill
8CJ	.	.	.	.
4D	4d	8gL	4a	wirdihn
.	.	8f#J	.	.
4G	4d	4g	4b	michin's
=4	=4	=4	=4	=4
8GL	8eL	4a	4cc	auchHer-
8F#J	8dJ	.	.	.
8GL	4d	8aL	4b	nicht-ze
8BBJ	.	8gJ	.	.
4C	8eL	8gL	2a	las-fas-
.	8A	16f#L	.	.
.	.	16eJJ	.	.
4D	8d	4f#	.	.
.	8cJ	.	.	.
=5	=5	=5	=5	=5
1GG;	1B;	1d;	1g;	-sen.-sen.
=6:|!	=6:|!	=6:|!	=6:|!	=6:|!
*>B	*>B	*>B	*>B	*
8GGL	4d	4g	4b	Weiss
8AAJ	.	.	.	.
8BBL	4d	4g	4b	ge-
8CJ	.	.	.	.
8DL	4.d	4g	4a	-wiss
8EJ	.	.	.	.
8F#L	.	4f#	4a	und
8D#J	8c	.	.	.
=7	=7	=7	=7	=7
8EL	4B	4f#	4g	glau-
8F#J	.	.	.	.
8GL	4B	4e	4g	-be
8AJ	.	.	.	.
2B;	2B;	2d#;	2f#;	fest,
=8	=8	=8	=8	=8
(8C	8gL	8eL	4ee	dass
4c)	8aJ	8f#J	.	.
.	4d	4g	4dd	mich
8B	.	.	.	.
(8AA	8eL	8gL	4cc	Je-
4A)	8cJ	8f#J	.	.
.	4d	4g	4b	-sus
8G	.	.	.	.
=9	=9	=9	=9	=9
4C	8eL	8gL	4a	auch
.	8AJ	16f#L	.	.
.	.	16eJJ	.	.
4D	8dL	4f#	4a	nicht
.	8cJ	.	.	.
2GG;	2B;	2d;	2g;	lÃ¤sst.
==|!	==|!	==|!	==|!	==|!
*-	*-	*-	*-	*-
!!!RWG: Key is interpreted using the Humdrum key tool.
!!!URL-pdf: https://s9.imslp.org/files/imglnks/usimg/7/7a/IMSLP04155-Bach_-_BGA_253-438.pdf#page=69 	Bach-Gesellschaft Ausgabe, Band 39 (pp.175-276) Leipzig: Breitkopf und Härtel, 1892. Plate B.W. XXXIX.
!!!END: 1994/07/18
!!!EMD: Converted from MuseData to Humdrum Dec 19, 2000, by Andreas Kornstaedt using muse2kern.
!!!EED: Craig Stuart Sapp
!!!EEV: 2024/03/31
!!!filter-keyboard: satb2gs
!!!title: @{OTL} (@{SCT})
